X:1
T:Jesus, Your Name
T:Jesus, Your Name
T:Scott Werdebaugh
T:Scott Werdebaugh, 2018
T:© 2018 Scott Werdebaugh - May freely copy &amp; use for Christian worship &amp; devotions with no alterations. All other rights reserved.
T:© 2018 Scott Werdebaugh - May freely copy &amp; use for Christian worship &amp; devotions with no alterations. All other rights reserved.
T:© 2018 Scott Werdebaugh - May freely copy &amp; use for Christian worship &amp; devotions with no alterations. All other rights reserved.
C:Scott Werdebaugh
Z:© 2018 Scott Werdebaugh - May freely copy & use for Christian
Z:worship & devotions with no alterations. All other rights reserved.
%%score 1 ( 2 3 )
L:1/8
Q:1/4=120
M:3/4
K:C
V:1 treble 
V:2 bass 
V:3 bass 
V:1
"^Worshipful" [EG]2 [CE]2 [DF]2 | [EG]4 [EG]2 | [FA]4 [FA]2 | [GB]2 ([Ac][GB]) [FA]2 | %4
w: 1.~Je- sus, Your|Name is|far a-|bove ever- * y|
w: 2.~You were the|Great I|AM that|spoke to * Mos-|
w: 3.~Je- sus, our|Rock and|Fort- ress|when all * a-|
w: 4.~Je- sus, our|Pas- chal|Lamb of|God, take * a-|
 [EG]4 [CE]2 | [B,D]3 z [EG][EG] | [CA]2 [CA]2 [DB]2 | [Ec]2 [GB]2 [FA]2 | [EG]2 [DF]2 [CE]2 | %9
w: name, I|know, For You|stand be- hind|Your awe- some|name \- a-|
w: es that|day, You sat|on God’s throne,|loft- y, ex-|alt- ed on|
w: round us|fails; You’re the|true light that|shines in this|dark world of|
w: way our|sin, By Your|own death re-|deem us to|God so we’ll|
 [B,D]4 z2 | [EG]2 [CE]2 [DF]2 | [EG]4 [EG]2 | [CA]4 [DB]2 | [Ec]4 z2 | [Ec][Ec] [DB]2 [CA]2 | %15
w: lone.|Je- sus, You|are the|Great I|AM|from \- be- fore|
w: high,|You al- so|dwelt a-|mong \-|us|show- ing us the|
w: woe.|As our Great|Shep- herd,|full of|grace,|Your \- glo- ry|
w: live,|E- ter- nal|life in|Your pres-|ence|for- ev- er a-|
 [EG]4 [CE]2 | ([CF]2 [CE]2) [B,D]2 | [G,C]3 z [EG][EG] | [Ec]4 [Ec]2 | [DB]2 [CA]2 [EG]2 | %20
w: all cre-|a * \-|tion, For when|God spoke,|You were the|
w: on- ly|nar- * row|way, Won- der-|ful Coun-|sel- or, Al-|
w: and life|leads * us|on, You \-|guide us|in the way|
w: bove. You|are * our|vine, as branch-|es we|reach out to|
 [FA]4 [DB]2 | [Ec]4 [CA][CA] | [EG]2 [EG]2 [CE]2 | [B,D]4 z2 | [CA]4 [DB]2 | [Ec]2 [Ec]4 | %26
w: Word of|God Al \-|might \- \-|y,|You were|the Word|
w: might- y|God, E \-|ter- nal Fath-|er,|Prince of|Peace, our|
w: we should|go, And as|our Bread of|Life,|we live|on Your|
w: You. You|have o- ver-|come \- the|world,|You’re our|ma- jes-|
 [CA]2 [EG]2 [CE]2 | [B,D]4 [G,C]2 | [EG]2 [EG]2 [DF]2 | [CE]2 [B,D]2 [B,D]2 | [CE]4 [CF]2 | %31
w: who was with|God and|He a- lone|was God, And|on- ly|
w: re- fuge, our|strength, Son|of God, You|love us, and|are with|
w: ev- er- y|word; Your|love, truth, and|life our souls|You re-|
w: tic com- ing|King, our|sole hope of|glo- ry are|You! O|
 [EG]4 [EG]2 | [CA]4 [DB]2 | [Ec]4 [DB]2 | [Ec]4 [CA]2 | [EG]4 [CE]2 | [B,D]6 | !fermata![G,C]6 || %38
w: You cre-|at- ed|all and|all with|such great|beau-|ty.|
w: us, and|make us|ho- ly|on- ly|un \-|to|You.|
w: store as|we make|You our|God, our|on \-|ly|Lord.|
w: come, Lord|Je- sus,|come, and|take us|Home \-|with|You!|
"^Refrain" [EG]2 [CE]2 [DF]2 | [EG]4 [EG]2 | [CA]4 [DB]2 | [CA]4 [EG]2 | [EG]4 z2 | %43
w: |||||
w: |||||
w: |||||
w: |||||
 [CA]2 [CA]2 [DB]2 | [Ec]4 [CA]2 | ([EG]4 [CE]2) | [B,D]4 z2 | [EG]2 [CE]2 [DF]2 | [EG]4 [EG][Ec] | %49
w: ||||||
w: ||||||
w: ||||||
w: ||||||
 ([Ec]2 [DB]2) [CA]2 | [EG]4 [EG]2 | [CA]4 [DB]2 | [Ec]4 z2 | [EG]2 [FA]4 | [Fc]2 [Fd]4 | %55
w: ||||||
w: ||||||
w: ||||||
w: ||||||
 [Fc]2 !fermata![Ec]4 |] %56
w: |
w: |
w: |
w: |
V:2
 [C,C]2 [C,G,]2 [G,B,]2 | [C,C]4 [C,C]2 | [F,C]4 [F,C]2 | [G,D]2 [F,C][G,D] [F,C]2 | %4
w: ||||
 [C,C]4 [C,G,]2 | [G,,G,]3 z [C,C][C,C] | [F,,F,]2 [F,,F,]2 [G,,G,]2 | [C,G,]2 [D,G,]2 [F,,C]2 | %8
w: ||||
 [C,C]2 [G,,B,]2 [C,G,]2 | [G,,G,]4 z2 | [C,C]2 [C,G,]2 [G,,B,]2 | [C,C]4 [C,C]2 | %12
w: ||||
 [F,,F,]4 [G,,G,]2 | [C,G,]4 z2 | [C,G,][C,G,] [G,,G,]2 [F,,F,]2 | [C,C]4 [C,G,]2 | %16
w: ||||
 ([F,A,]2 [C,G,]2) [G,,G,]2 | [C,E,]3 z [C,C][C,C] | [C,G,]4 [C,G,]2 | [G,,G,]2 [F,,F,]2 [C,C]2 | %20
w: ||||
 [F,C]4 [G,,G,]2 | [C,G,]4 [F,A,][F,A,] | [C,C]2 [C,C]2 [C,G,]2 | [G,,G,]4 z2 | [F,,F,]4 [G,,G,]2 | %25
w: |||||
 [C,G,]2 [C,G,]4 | [F,,F,]2 [C,C]2 [C,G,]2 | [G,,G,]4 [C,E,]2 | [C,C]2 [C,C]2 [G,B,]2 | %29
w: ||||
 [C,G,]2 [G,,G,]2 [G,,G,]2 | [C,G,]4 [F,A,]2 | [C,C]4 [C,C]2 | [F,,F,]4 [G,,G,]2 | %33
w: ||||
 [C,G,]4 [G,,G,]2 | [C,G,]4 [F,,F,]2 | [C,C]4 [C,G,]2 | (G,4 F,2) | !fermata![C,E,]6 || %38
w: |||||
 [C,C]2 [C,G,]2 [G,B,]2 | [C,C]4 [C,C]2 | [F,,F,]4 [G,,G,]2 | [F,,F,]4 [C,C]2 | [C,C]4 z2 | %43
w: Je- sus, Your|Name a-|lone means|more to|me;|
 [F,,F,]2 [F,,F,]2 [G,,G,]2 | [C,G,]4 [F,,F,]2 | ([C,C]4 [C,G,]2) | [G,,G,]4 z2 | %47
w: Je- sus, Your|Name is|ho- *|ly.|
 [C,C]2 [C,G,]2 [G,,B,]2 | [C,C]4 [C,C][C,G,] | ([C,G,]2 [G,,G,]2) [F,,F,]2 | [C,C]4 [C,C]2 | %51
w: Your prec- ious|blood cov- ers|all * our|sin, Through|
 [F,,F,]4 [G,,G,]2 | [C,G,]4 z2 | [C,C]2 [F,C]4 | [F,A,]2 [G,B,]4 | [F,A,]2 !fermata![C,G,]4 |] %56
w: You a-|lone,|I've been|made clean|a- gain.|
V:3
 x6 | x6 | x6 | x6 | x6 | x6 | x6 | x6 | x6 | x6 | x6 | x6 | x6 | x6 | x6 | x6 | x6 | x6 | x6 | %19
 x6 | x6 | x6 | x6 | x6 | x6 | x6 | x6 | x6 | x6 | x6 | x6 | x6 | x6 | x6 | x6 | x6 | G,,6 | x6 || %38
 x6 | x6 | x6 | x6 | x6 | x6 | x6 | x6 | x6 | x6 | x6 | x6 | x6 | x6 | x6 | x6 | x6 | x6 |] %56

